**harmony	**harte	**kern	**silbe	**rhyme	**timestamp	**phrase	**leadinstrument
*M4/4	*M4/4	*ICvox	*	*	*	*	*
*	*	*VRlead	*	*	*	*	*
*	*	*Hstimme	*	*	*	*	*
*E:	*E:	*E:	*	*	*	*	*
*	*	*M4/4	*	*	*	*	*
*	*	*clefF4	*	*	*	*	*
1r;	1r	r;	.	.	0	.	r
=1	=1	=1	=1	=1	=1	=1	=1
*>Letter>A	*>Letter>A	*>Letter>A	*>Letter>A	*>Letter>A	*>Letter>A	*>Letter>A	*>Letter>A
*>Label>Intro	*>Label>Intro	*>Label>Intro	*>Label>Intro	*>Label>Intro	*>Label>Intro	*>Label>Intro	*>Label>Intro
1EM	E:maj	1r	.	.	0.395	newline	r
=2	=2	=2	=2	=2	=2	=2	=2
2AM	A:maj	1r	.	.	2.482	.	r
2EM	E:maj	.	.	.	3.525	.	r
=3	=3	=3	=3	=3	=3	=3	=3
1EM	E:maj	1r	.	.	4.569	.	r
=4	=4	=4	=4	=4	=4	=4	=4
2AM	A:maj	2r	.	.	6.656	.	r
2EM	E:maj	4r	.	.	7.7	.	r
.	.	8r	.	.	.	.	.
.	.	8E	You	.	.	.	.
=5	=5	=5	=5	=5	=5	=5	=5
*>Letter>B	*>Letter>B	*>Letter>B	*>Letter>B	*>Letter>B	*>Letter>B	*>Letter>B	*>Letter>B
*>Label>Chorus	*>Label>Chorus	*>Label>Chorus	*>Label>Chorus	*>Label>Chorus	*>Label>Chorus	*>Label>Chorus	*>Label>Chorus
1EM	E:maj	8G#	fought	.	8.743	newline	voice
.	.	4G#	all	.	.	.	.
.	.	8B	the	.	.	.	.
.	.	4G#	way	.	.	.	.
.	.	8E	John-	.	.	.	.
.	.	8E	-ny	.	.	.	.
=6	=6	=6	=6	=6	=6	=6	=6
1EM	E:maj	4G#	Reb,	.	10.824	.	voice
.	.	8G#	John-	.	.	.	.
.	.	8F#	-ny	.	.	.	.
.	.	4E	Reb	.	.	.	.
.	.	8r	.	.	.	.	.
.	.	8E	You	.	.	.	.
=7	=7	=7	=7	=7	=7	=7	=7
2.EM	E:maj	8G#	fought	.	12.905	.	voice
.	.	4G#	all	.	.	.	.
.	.	8B	the	.	.	.	.
.	.	4G#	way	.	.	.	.
4BMm	B:7	8E	John-	.	14.466	.	voice
.	.	8E	-ny	.	.	.	.
=8	=8	=8	=8	=8	=8	=8	=8
1EM	E:maj	4E	Reb	.	14.986	.	voice
.	.	4r	.	.	.	.	.
.	.	2r	.	.	.	.	.
=9	=9	=9	=9	=9	=9	=9	=9
1EM	E:maj	1r	.	.	17.067	.	voice
=10	=10	=10	=10	=10	=10	=10	=10
*>Letter>C	*>Letter>C	*>Letter>C	*>Letter>C	*>Letter>C	*>Letter>C	*>Letter>C	*>Letter>C
*>Label>Verse	*>Label>Verse	*>Label>Verse	*>Label>Verse	*>Label>Verse	*>Label>Verse	*>Label>Verse	*>Label>Verse
1EM	E:maj	8G#	Saw	.	19.149	newline	voice
.	.	4G#	you	.	.	.	.
.	.	8F#	a	.	.	.	.
.	.	8G#	mar-	.	.	.	.
.	.	8E	-chin'	.	.	.	.
.	.	4E	with	.	.	.	.
=11	=11	=11	=11	=11	=11	=11	=11
2AM	A:maj	8C#	Ro-	.	21.263	.	voice
.	.	8E	-bert	.	.	.	.
.	.	8F#	E.	A	.	.	.
.	.	8F#	Lee	A	.	.	.
2EM	E:maj	4E	_	.	22.32	.	voice
.	.	8r	.	.	.	.	.
.	.	8G#	You	.	.	.	.
=12	=12	=12	=12	=12	=12	=12	=12
1EM	E:maj	8G#	held	.	23.377	.	voice
.	.	8B	your	.	.	.	.
.	.	8B	head	.	.	.	.
.	.	8G#	uh	.	.	.	.
.	.	4B	high	.	.	.	.
.	.	8B	tryin'	.	.	.	.
.	.	8B	to	.	.	.	.
=13	=13	=13	=13	=13	=13	=13	=13
1BMm	B:7	8c#	win	.	25.491	.	voice
.	.	8B	the	.	.	.	.
.	.	8G#	vic-	.	.	.	.
.	.	8B	-to-	.	.	.	.
.	.	4B	-ry	A	.	.	.
.	.	8r	.	.	.	.	.
.	.	8B	You	.	.	.	.
=14	=14	=14	=14	=14	=14	=14	=14
1AM	A:maj	8c#	fought	.	27.605	newline	voice
.	.	4c#	for	.	.	.	.
.	.	8c#	your	.	.	.	.
.	.	4c#	folks	.	.	.	.
.	.	8d#	but	.	.	.	.
.	.	8c#	you	.	.	.	.
=15	=15	=15	=15	=15	=15	=15	=15
1EM	E:maj	16B	did-	.	29.697	.	voice
.	.	16B	-'nt	.	.	.	.
.	.	4B	die	.	.	.	.
.	.	8B	in	.	.	.	.
.	.	4E	vain	B	.	.	.
.	.	4r	.	.	.	.	.
=16	=16	=16	=16	=16	=16	=16	=16
1EM	E:maj	8G#	E-	.	31.789	.	voice
.	.	8F#	-ven	.	.	.	.
.	.	8G#	though	.	.	.	.
.	.	8F#	you	.	.	.	.
.	.	8E	lost	.	.	.	.
.	.	8BB	they	.	.	.	.
.	.	8BB	speak	.	.	.	.
.	.	8BB	high-	.	.	.	.
=17	=17	=17	=17	=17	=17	=17	=17
2BMm	B:7	8C#	_	.	33.88	.	voice
.	.	8E	-ly	.	.	.	.
.	.	8E	of	.	.	.	.
.	.	8F#	your	.	.	.	.
2EM	E:maj	16F#	name	B	34.926	.	voice
.	.	8.E	_	.	.	.	.
.	.	8E	'cause	.	.	.	.
.	.	8E	You	.	.	.	.
=18	=18	=18	=18	=18	=18	=18	=18
*>Letter>B	*>Letter>B	*>Letter>B	*>Letter>B	*>Letter>B	*>Letter>B	*>Letter>B	*>Letter>B
*>Label>Chorus	*>Label>Chorus	*>Label>Chorus	*>Label>Chorus	*>Label>Chorus	*>Label>Chorus	*>Label>Chorus	*>Label>Chorus
1EM	E:maj	8G#	fought	.	35.972	newline	voice
.	.	4G#	all	.	.	.	.
.	.	8B	the	.	.	.	.
.	.	4G#	way	.	.	.	.
.	.	8E	John-	.	.	.	.
.	.	8E	-ny	.	.	.	.
=19	=19	=19	=19	=19	=19	=19	=19
1EM	E:maj	4G#	Reb,	.	38.042	.	voice
.	.	8G#	John-	.	.	.	.
.	.	8F#	-ny	.	.	.	.
.	.	4E	Reb	.	.	.	.
.	.	8r	.	.	.	.	.
.	.	8E	You	.	.	.	.
=20	=20	=20	=20	=20	=20	=20	=20
2.EM	E:maj	8G#	fought	.	40.111	.	voice
.	.	4G#	all	.	.	.	.
.	.	8B	the	.	.	.	.
.	.	4G#	way	.	.	.	.
4BMm	B:7	8E	John-	.	41.664	.	voice
.	.	8E	-ny	.	.	.	.
=21	=21	=21	=21	=21	=21	=21	=21
1EM	E:maj	4E	Reb	.	42.181	.	voice
.	.	4r	.	.	.	.	.
.	.	2r	.	.	.	.	.
=22	=22	=22	=22	=22	=22	=22	=22
1EM	E:maj	2r	.	.	44.251	.	voice
.	.	4r	.	.	.	.	.
.	.	8r	.	.	.	.	.
.	.	8F#	I	.	.	.	.
=23	=23	=23	=23	=23	=23	=23	=23
*>Letter>C	*>Letter>C	*>Letter>C	*>Letter>C	*>Letter>C	*>Letter>C	*>Letter>C	*>Letter>C
*>Label>Verse	*>Label>Verse	*>Label>Verse	*>Label>Verse	*>Label>Verse	*>Label>Verse	*>Label>Verse	*>Label>Verse
1EM	E:maj	8G#	heard	.	46.32	newline	voice
.	.	8F#	your	.	.	.	.
.	.	8G#	teeth	.	.	.	.
.	.	4G#	chat-	.	.	.	.
.	.	8F#	-ter	.	.	.	.
.	.	8E	from	.	.	.	.
.	.	8BB	the	.	.	.	.
=24	=24	=24	=24	=24	=24	=24	=24
2AM	A:maj	8C#	cold	.	48.41	.	voice
.	.	8E	_	.	.	.	.
.	.	4E	out-	.	.	.	.
2EM	E:maj	4E	-side	C	49.455	.	voice
.	.	4r	.	.	.	.	.
=25	=25	=25	=25	=25	=25	=25	=25
1EM	E:maj	8G#	Saw	.	50.5	.	voice
.	.	8B	the	.	.	.	.
.	.	16B	bul-	.	.	.	.
.	.	8.G#	-lets	.	.	.	.
.	.	8B	o-	.	.	.	.
.	.	8B	-pen	.	.	.	.
.	.	8B	up	.	.	.	.
.	.	8B	the	.	.	.	.
=26	=26	=26	=26	=26	=26	=26	=26
1BMm	B:7	4c#	wounds	.	52.59	.	voice
.	.	8G#	in	.	.	.	.
.	.	8B	your	.	.	.	.
.	.	4B	side	C	.	.	.
.	.	8.r	.	.	.	.	.
.	.	16B	I	.	.	.	.
=27	=27	=27	=27	=27	=27	=27	=27
1AM	A:maj	8c#	saw	.	54.679	newline	voice
.	.	8c#	the	.	.	.	.
.	.	4c#	young	.	.	.	.
.	.	4c#	boys	.	.	.	.
.	.	8.r	.	.	.	.	.
.	.	16A	as	.	.	.	.
=28	=28	=28	=28	=28	=28	=28	=28
1EM	E:maj	8B	they	.	56.773	.	voice
.	.	8B	be-	.	.	.	.
.	.	8B	-gan	.	.	.	.
.	.	8B	to	.	.	.	.
.	.	8E	fall	D	.	.	.
.	.	8E	You	.	.	.	.
.	.	4E	had	.	.	.	.
=29	=29	=29	=29	=29	=29	=29	=29
1EM	E:maj	4G#	tears	.	58.867	.	voice
.	.	8G#	in	.	.	.	.
.	.	8F#	your	.	.	.	.
.	.	4E	eyes	.	.	.	.
.	.	8BB	'cause	.	.	.	.
.	.	8BB	you	.	.	.	.
=30	=30	=30	=30	=30	=30	=30	=30
2BMm	B:7	8C#	could-	.	60.961	.	voice
.	.	8E	-n't	.	.	.	.
.	.	8E	help	.	.	.	.
.	.	8E	at	.	.	.	.
2EM	E:maj	16F#	all	D	62.008	.	voice
.	.	8.E	_	.	.	.	.
.	.	8E	But	.	.	.	.
.	.	8E	you	.	.	.	.
=31	=31	=31	=31	=31	=31	=31	=31
*>Letter>B	*>Letter>B	*>Letter>B	*>Letter>B	*>Letter>B	*>Letter>B	*>Letter>B	*>Letter>B
*>Label>Chorus	*>Label>Chorus	*>Label>Chorus	*>Label>Chorus	*>Label>Chorus	*>Label>Chorus	*>Label>Chorus	*>Label>Chorus
1EM	E:maj	8G#	fought	.	63.055	newline	voice
.	.	4G#	all	.	.	.	.
.	.	8B	the	.	.	.	.
.	.	4G#	way	.	.	.	.
.	.	8E	John-	.	.	.	.
.	.	8E	-ny	.	.	.	.
=32	=32	=32	=32	=32	=32	=32	=32
1EM	E:maj	4G#	Reb,	.	65.142	.	voice
.	.	8G#	John-	.	.	.	.
.	.	8F#	-ny	.	.	.	.
.	.	4E	Reb	.	.	.	.
.	.	8r	.	.	.	.	.
.	.	8E	You	.	.	.	.
=33	=33	=33	=33	=33	=33	=33	=33
2.EM	E:maj	8G#	fought	.	67.23	.	voice
.	.	4G#	all	.	.	.	.
.	.	8B	the	.	.	.	.
.	.	4G#	way	.	.	.	.
4BMm	B:7	8E	John-	.	68.796	.	voice
.	.	8E	-ny	.	.	.	.
=34	=34	=34	=34	=34	=34	=34	=34
1EM	E:maj	4E	Reb	.	69.318	.	voice
.	.	4r	.	.	.	.	.
.	.	2r	.	.	.	.	.
=35	=35	=35	=35	=35	=35	=35	=35
1EM	E:maj	2r	.	.	71.406	.	voice
.	.	4r	.	.	.	.	.
.	.	8.r	.	.	.	.	.
.	.	16E	I	.	.	.	.
=36	=36	=36	=36	=36	=36	=36	=36
*>Letter>C	*>Letter>C	*>Letter>C	*>Letter>C	*>Letter>C	*>Letter>C	*>Letter>C	*>Letter>C
*>Label>Verse	*>Label>Verse	*>Label>Verse	*>Label>Verse	*>Label>Verse	*>Label>Verse	*>Label>Verse	*>Label>Verse
1EM	E:maj	8G#	saw	.	73.494	newline	voice
.	.	4G#	Gen'-	.	.	.	.
.	.	8F#	-ral	.	.	.	.
.	.	4G#	Lee	.	.	.	.
.	.	8BB	raise	.	.	.	.
.	.	8BB	a	.	.	.	.
=37	=37	=37	=37	=37	=37	=37	=37
2AM	A:maj	8C#	sa-	.	75.585	.	voice
.	.	8E	-ber	.	.	.	.
.	.	8E	in	.	.	.	.
.	.	8F#	his	.	.	.	.
2EM	E:maj	4E	hand	E	76.631	.	voice
.	.	4r	.	.	.	.	.
=38	=38	=38	=38	=38	=38	=38	=38
1EM	E:maj	8G#	Heard	.	77.677	.	voice
.	.	8B	the	.	.	.	.
.	.	8B	can-	.	.	.	.
.	.	8B	-nons	.	.	.	.
.	.	4B	roar	.	.	.	.
.	.	8B	as	.	.	.	.
.	.	8B	you	.	.	.	.
=39	=39	=39	=39	=39	=39	=39	=39
1BMm	B:7	8c#	made	.	79.769	.	voice
.	.	8B	your	.	.	.	.
.	.	4B	last	.	.	.	.
.	.	4B	stand	E	.	.	.
.	.	8.r	.	.	.	.	.
.	.	16B	You	.	.	.	.
=40	=40	=40	=40	=40	=40	=40	=40
1AM	A:maj	8c#	marched	.	81.861	newline	voice
.	.	4c#	in-	.	.	.	.
.	.	8c#	-to	.	.	.	.
.	.	8c#	bat-	.	.	.	.
.	.	8c#	-tle	.	.	.	.
.	.	8d#	with	.	.	.	.
.	.	8c#	the	.	.	.	.
=41	=41	=41	=41	=41	=41	=41	=41
1EM	E:maj	8B	Grey	.	83.968	.	voice
.	.	4B	and	.	.	.	.
.	.	8B	the	.	.	.	.
.	.	4E	Red	F	.	.	.
.	.	8E	When	.	.	.	.
.	.	8E	the	.	.	.	.
=42	=42	=42	=42	=42	=42	=42	=42
1EM	E:maj	8G#	can-	.	86.076	.	voice
.	.	8F#	-non	.	.	.	.
.	.	4G#	smoke	.	.	.	.
.	.	4E	cleared	.	.	.	.
.	.	8.BB	took	.	.	.	.
.	.	16BB	days	.	.	.	.
=43	=43	=43	=43	=43	=43	=43	=43
2BMm	B:7	8E	_	.	88.183	.	voice
.	.	8E	to	.	.	.	.
.	.	8E	count	.	.	.	.
.	.	8F#	the	.	.	.	.
2EM	E:maj	4E	dead	F	89.237	.	voice
.	.	8E	'Cause	.	.	.	.
.	.	8E	you	.	.	.	.
=44	=44	=44	=44	=44	=44	=44	=44
*>Letter>B	*>Letter>B	*>Letter>B	*>Letter>B	*>Letter>B	*>Letter>B	*>Letter>B	*>Letter>B
*>Label>Chorus	*>Label>Chorus	*>Label>Chorus	*>Label>Chorus	*>Label>Chorus	*>Label>Chorus	*>Label>Chorus	*>Label>Chorus
1EM	E:maj	8G#	fought	.	90.29	newline	voice
.	.	4G#	all	.	.	.	.
.	.	8B	the	.	.	.	.
.	.	4G#	way	.	.	.	.
.	.	8E	John-	.	.	.	.
.	.	8E	-ny	.	.	.	.
=45	=45	=45	=45	=45	=45	=45	=45
1EM	E:maj	4G#	Reb,	.	92.381	.	voice
.	.	8G#	John-	.	.	.	.
.	.	8F#	-ny	.	.	.	.
.	.	4E	Reb	.	.	.	.
.	.	8r	.	.	.	.	.
.	.	8E	You	.	.	.	.
=46	=46	=46	=46	=46	=46	=46	=46
2.EM	E:maj	8G#	fought	.	94.472	.	voice
.	.	4G#	all	.	.	.	.
.	.	8B	the	.	.	.	.
.	.	4G#	way	.	.	.	.
4BMm	B:7	8E	John-	.	96.041	.	voice
.	.	8E	-ny	.	.	.	.
=47	=47	=47	=47	=47	=47	=47	=47
1EM	E:maj	4E	Reb	.	96.563	.	voice
.	.	4r	.	.	.	.	.
.	.	2r	.	.	.	.	.
=48	=48	=48	=48	=48	=48	=48	=48
1EM	E:maj	2r	.	.	98.654	.	voice
.	.	4r	.	.	.	.	.
.	.	8.r	.	.	.	.	.
.	.	16E	When	.	.	.	.
=49	=49	=49	=49	=49	=49	=49	=49
*>Letter>C	*>Letter>C	*>Letter>C	*>Letter>C	*>Letter>C	*>Letter>C	*>Letter>C	*>Letter>C
*>Label>Verse	*>Label>Verse	*>Label>Verse	*>Label>Verse	*>Label>Verse	*>Label>Verse	*>Label>Verse	*>Label>Verse
1EM	E:maj	8G#	Hon-	.	100.746	newline	voice
.	.	4.G#	-est	.	.	.	.
.	.	4G#	Abe	.	.	.	.
.	.	8BB	heard	.	.	.	.
.	.	8BB	the	.	.	.	.
=50	=50	=50	=50	=50	=50	=50	=50
2AM	A:maj	8C#	news	.	102.842	.	voice
.	.	8E	a-	.	.	.	.
.	.	8E	-bout	.	.	.	.
.	.	8E	your	.	.	.	.
2EM	E:maj	16F#	fall	D	103.891	.	voice
.	.	8.E	_	.	.	.	.
.	.	8r	.	.	.	.	.
.	.	16r	.	.	.	.	.
.	.	16G#	The	.	.	.	.
=51	=51	=51	=51	=51	=51	=51	=51
1EM	E:maj	8G#	folks	.	104.939	.	voice
.	.	4B	thought	.	.	.	.
.	.	8B	he'd	.	.	.	.
.	.	4.B	call	.	.	.	.
.	.	8B	a	.	.	.	.
=52	=52	=52	=52	=52	=52	=52	=52
1BMm	B:7	4c#	great	.	107.036	.	voice
.	.	8B	vic-	.	.	.	.
.	.	8G#	-t'ry	.	.	.	.
.	.	8B	ball	D	.	.	.
.	.	8G#	_	.	.	.	.
.	.	8r	.	.	.	.	.
.	.	8B	But	.	.	.	.
=53	=53	=53	=53	=53	=53	=53	=53
1AM	A:maj	8c#	he	.	109.133	newline	voice
.	.	4c#	asked	.	.	.	.
.	.	8c#	the	.	.	.	.
.	.	8c#	band	.	.	.	.
.	.	8c#	to	.	.	.	.
.	.	8d#	play	.	.	.	.
.	.	8c#	the	.	.	.	.
=54	=54	=54	=54	=54	=54	=54	=54
1EM	E:maj	4B	song	.	111.223	.	voice
.	.	8G#	Dix-	.	.	.	.
.	.	[8G#	-ie	A	.	.	.
.	.	8G#]	_	.	.	.	.
.	.	8r	.	.	.	.	.
.	.	8r	.	.	.	.	.
.	.	8E	For	.	.	.	.
=55	=55	=55	=55	=55	=55	=55	=55
1EM	E:maj	8G#	you	.	113.313	.	voice
.	.	4G#	John-	.	.	.	.
.	.	8F#	-ny	.	.	.	.
.	.	4E	Reb	.	.	.	.
.	.	8r	.	.	.	.	.
.	.	8BB	and	.	.	.	.
=56	=56	=56	=56	=56	=56	=56	=56
2BMm	B:7	8C#	all	.	115.402	.	voice
.	.	8E	that	.	.	.	.
.	.	8E	you	.	.	.	.
.	.	8F#	be-	.	.	.	.
2EM	E:maj	4E	-lieved	A	116.447	.	voice
.	.	8E	'Cause	.	.	.	.
.	.	8E	you	.	.	.	.
=57	=57	=57	=57	=57	=57	=57	=57
*>Letter>B2	*>Letter>B2	*>Letter>B2	*>Letter>B2	*>Letter>B2	*>Letter>B2	*>Letter>B2	*>Letter>B2
*>Label>Chorus	*>Label>Chorus	*>Label>Chorus	*>Label>Chorus	*>Label>Chorus	*>Label>Chorus	*>Label>Chorus	*>Label>Chorus
1EM	E:maj	8G#	fought	.	117.492	newline	voice
.	.	4G#	all	.	.	.	.
.	.	8B	the	.	.	.	.
.	.	4G#	way	.	.	.	.
.	.	8E	John-	.	.	.	.
.	.	8E	-ny	.	.	.	.
=58	=58	=58	=58	=58	=58	=58	=58
1EM	E:maj	4G#	Reb,	.	119.596	.	voice
.	.	8G#	John-	.	.	.	.
.	.	8F#	-ny	.	.	.	.
.	.	4E	Reb	.	.	.	.
.	.	8E	Yeah	.	.	.	.
.	.	8E	you	.	.	.	.
=59	=59	=59	=59	=59	=59	=59	=59
2.EM	E:maj	8G#	fought	.	121.699	.	voice
.	.	4G#	all	.	.	.	.
.	.	8B	the	.	.	.	.
.	.	4G#	way	.	.	.	.
4BMm	B:7	8E	John-	.	123.277	.	voice
.	.	8E	-ny	.	.	.	.
=60	=60	=60	=60	=60	=60	=60	=60
1EM	E:maj	4E	Reb	.	123.802	.	voice
.	.	4r	.	.	.	.	.
.	.	4r	.	.	.	.	.
.	.	8r	.	.	.	.	.
.	.	8E	you	.	.	.	.
=61	=61	=61	=61	=61	=61	=61	=61
*>Label>>Fadeout	*>Label>>Fadeout	*>Label>>Fadeout	*>Label>>Fadeout	*>Label>>Fadeout	*>Label>>Fadeout	*>Label>>Fadeout	*>Label>>Fadeout
1EM	E:maj	8G#	fought	.	125.906	newline	voice
.	.	4G#	all	.	.	.	.
.	.	8B	the	.	.	.	.
.	.	4G#	way	.	.	.	.
.	.	8E	John-	.	.	.	.
.	.	8E	-ny	.	.	.	.
=62	=62	=62	=62	=62	=62	=62	=62
1EM	E:maj	4G#	Reb,	.	127.987	.	voice
.	.	8G#	John-	.	.	.	.
.	.	8F#	-ny	.	.	.	.
.	.	4E	Reb	.	.	.	.
.	.	8r	.	.	.	.	.
.	.	8E	you	.	.	.	.
=63	=63	=63	=63	=63	=63	=63	=63
2.EM	E:maj	8G#	fought	.	130.067	.	voice
.	.	4G#	all	.	.	.	.
.	.	8B	the	.	.	.	.
.	.	4G#	way	.	.	.	.
4BMm	B:7	8E	John-	.	131.628	.	voice
.	.	8E	-ny	.	.	.	.
=64	=64	=64	=64	=64	=64	=64	=64
1EM	E:maj	4E	Reb	.	132.148	.	voice
.	.	4r	.	.	.	.	.
.	.	4r	.	.	.	.	.
.	.	8r	.	.	.	.	.
.	.	8E	you	.	.	.	.
=65	=65	=65	=65	=65	=65	=65	=65
1EM	E:maj	8G#	fought	.	134.229	newline	voice
.	.	4G#	all	.	.	.	.
.	.	8B	the	.	.	.	.
.	.	4G#	way	.	.	.	.
.	.	8E	John-	.	.	.	.
.	.	8E	-ny	.	.	.	.
=66	=66	=66	=66	=66	=66	=66	=66
1EM	E:maj	4G#	Reb,	.	136.204	.	voice
.	.	8G#	John-	.	.	.	.
.	.	8F#	-ny	.	.	.	.
.	.	4E	Reb	.	.	.	.
.	.	4r	.	.	.	.	.
=67	=67	=67	=67	=67	=67	=67	=67
2.EM	E:maj	1r	.	.	138.18	.	voice
4BMm	B:7	.	.	.	139.661	.	voice
1r;	1r	r;	.	.	140.155	.	r
1r;	1r	r;	.	.	141.441	.	r
*-	*-	*-	*-	*-	*-	*-	*-
!!!BillboardChartDate: 1959/08/24
!!!BillboardPeak: 54
!!!BillboardWeeksOnChart: 8
!!!COC: Johnny Horton
!!!ENC: Nathaniel Condit-Schultz
!!!EST: Awating manual error checking and editing.
!!!OTL: Johnny Reb
!!!RDF**chordsym: original McGill chord annotation + (implied pitch class set, with bass pitch in first position)
!!!RDF**harmony: **recip + pitch class of root + harmonic quality
!!!RDF**leadinstrument: original McGill primary instrumentation annotation
!!!RDF**phrase: newline = linebreak in original McGill transcription
!!!RDF**timestamp: McGill audio timestamp in seconds
!!!RDT: 2017/01/12/
!!!SampleActualRank: 70
!!!SampleID#: 1287
!!!SampleTargetRank: 69
!!!MBID: fc7c45f7-627a-4ed0-b24a-c290d90a15c2
